svgs/regular/ornament.svg

<svg xmlns="http://www.w3.org/2000/svg" viewBox="0 0 384 512"><!-- Font Awesome Pro 6.0.0-alpha2 by @fontawesome - https://fontawesome.com License - https://fontawesome.com/license (Commercial License) --><path d="M288 153.875V112C288 103.25 280.75 96 272 96H247.125C252.625 86.625 256 75.75 256 64C256 28.75 227.25 0 192 0S128 28.75 128 64C128 75.75 131.375 86.625 136.875 96H112C103.25 96 96 103.25 96 112V153.875C38.75 187.125 0 249 0 320C0 426.001 86 512 192 512C298 512 384 426.001 384 320C384 249 345.25 187.125 288 153.875ZM192 48C200.75 48 208 55.25 208 64S200.75 80 192 80S176 72.75 176 64S183.25 48 192 48ZM192 176C234.375 176 272.25 194.75 298.5 224H85.5C111.75 194.75 149.625 176 192 176ZM336 320C336 336.875 332.5 352.875 327.25 368H56.75C51.375 352.875 48 336.875 48 320S51.5 287.125 56.75 272H327.125C332.5 287.125 336 303.125 336 320ZM192 464C149.625 464 111.75 445.25 85.5 416H298.625C272.25 445.25 234.375 464 192 464Z"/></svg>

<svg xmlns="http://www.w3.org/2000/svg" viewBox="0 0 384 512"><!-- Font Awesome Pro 5.15.1 by @fontawesome - https://fontawesome.com License - https://fontawesome.com/license (Commercial License) --><path d="M288 153.9V112c0-8.8-7.2-16-16-16h-24.9c5.5-9.4 8.9-20.3 8.9-32 0-35.3-28.7-64-64-64s-64 28.7-64 64c0 11.7 3.4 22.6 8.9 32H112c-8.8 0-16 7.2-16 16v41.9C38.7 187.1 0 249 0 320c0 106 86 192 192 192s192-86 192-192c0-71-38.7-132.9-96-166.1zM192 48c8.8 0 16 7.2 16 16s-7.2 16-16 16-16-7.2-16-16 7.2-16 16-16zm0 128c42.4 0 80.2 18.8 106.5 48h-213c26.3-29.2 64.1-48 106.5-48zm144 144c0 16.9-3.5 32.9-8.8 48H56.8c-5.4-15.1-8.8-31.1-8.8-48s3.5-32.9 8.8-48h270.3c5.4 15.1 8.9 31.1 8.9 48zM192 464c-42.4 0-80.2-18.8-106.5-48h213.1c-26.4 29.2-64.2 48-106.6 48z"/></svg>
